X:1
T:Jesu, Joy of Man's Desiring (theme)
C:Johann Sebastian Bach
M:4/4
L:1/4
Q:1/4=90
K:G
G | B d e d | c B A B | G A B G | A2 G2 | B d e d | c B A B | d e ^f e | d4 |]
